PortableApps/LibreOfficePortable/App/libreoffice/help/media/icon-themes/cmd/lc_contourdialog.svg

<svg viewBox="0 0 24 24" xmlns="http://www.w3.org/2000/svg"><path d="m9 3v1h12.554688c.247121 0 .445312-.1981908.445312-.4453125v-.109375c0-.2471217-.198191-.4453125-.445312-.4453125zm0 3v1h12.554688c.247121 0 .445312-.1981908.445312-.4453125v-.109375c0-.2471217-.198191-.4453125-.445312-.4453125zm-6.5800781 3c-.232183 0-.4199219.1877394-.4199219.4199219v.1601562c0 .2321825.1877389.4199219.4199219.4199219h7.1601562c.232183 0 .4199219-.1877394.4199219-.4199219v-.1601562c0-.2321825-.1877389-.4199219-.4199219-.4199219h-1.5800781zm.0253906 3c-.247121 0-.4453125.198192-.4453125.445312v.109376c0 .24712.1981915.445312.4453125.445312h7.109375c.247121 0 .4453125-.198191.4453125-.445312v-.109376c0-.24712-.1981915-.445312-.4453125-.445312zm-.0351563 3c-.2272029 0-.4101562.182953-.4101562.410156v.179688c0 .227203.1829532.410156.4101562.410156h7.1796876c.227203 0 .4101562-.182953.4101562-.410156v-.179688c0-.227203-.1829572-.410156-.4101562-.410156zm0 3c-.2272029 0-.4101562.182953-.4101562.410156v.179688c0 .227203.1829532.410156.4101562.410156h19.1796878c.227203 0 .410156-.182953.410156-.410156v-.179688c0-.227203-.182953-.410156-.410156-.410156zm.0351563 3c-.247121 0-.4453125.198192-.4453125.445312v.109376c0 .24712.1981915.445312.4453125.445312h19.1093755c.247121 0 .445312-.198192.445312-.445312v-.109376c0-.24712-.198187-.445312-.445312-.445312z" fill="#808080"/><rect fill="#4d82b8" height="9" ry="1" transform="scale(-1 1)" width="10" x="-22" y="8"/><path d="m1.5 1c-.277 0-.5.223-.5.5v5c0 .277.223.5.5.5s.5-.223.5-.5v-4.5h4.5c.277 0 .5-.223.5-.5s-.223-.5-.5-.5zm5.984375 1c-.127164.00407-.2479966.05645-.3378906.1464844l-5 5c-.3147628.3150003-.0917942.8533279.3535156.8535156h5c.2761296-.0000309.4999691-.2238704.5-.5v-5c.0001053-.2823474-.2334144-.5087908-.515625-.5z" fill="#eac282"/></svg>

<svg viewBox="0 0 24 24" xmlns="http://www.w3.org/2000/svg">
  <path
     style="fill:#808080"
     d="M 9 3 L 9 4 L 21.554688 4 C 21.801809 4 22 3.8018092 22 3.5546875 L 22 3.4453125 C 22 3.1981908 21.801809 3 21.554688 3 L 9 3 z M 9 6 L 9 7 L 21.554688 7 C 21.801809 7 22 6.8018092 22 6.5546875 L 22 6.4453125 C 22 6.1981908 21.801809 6 21.554688 6 L 9 6 z M 2.4199219 9 C 2.1877389 9 2 9.1877394 2 9.4199219 L 2 9.5800781 C 2 9.8122606 2.1877389 10 2.4199219 10 L 9.5800781 10 C 9.8122611 10 10 9.8122606 10 9.5800781 L 10 9.4199219 C 10 9.1877394 9.8122611 9 9.5800781 9 L 8 9 L 2.4199219 9 z M 2.4453125 12 C 2.1981915 12 2 12.198192 2 12.445312 L 2 12.554688 C 2 12.801808 2.1981915 13 2.4453125 13 L 9.5546875 13 C 9.8018085 13 10 12.801809 10 12.554688 L 10 12.445312 C 10 12.198192 9.8018085 12 9.5546875 12 L 2.4453125 12 z M 2.4101562 15 C 2.1829533 15 2 15.182953 2 15.410156 L 2 15.589844 C 2 15.817047 2.1829532 16 2.4101562 16 L 9.5898438 16 C 9.8170468 16 10 15.817047 10 15.589844 L 10 15.410156 C 10 15.182953 9.8170428 15 9.5898438 15 L 2.4101562 15 z M 2.4101562 18 C 2.1829533 18 2 18.182953 2 18.410156 L 2 18.589844 C 2 18.817047 2.1829532 19 2.4101562 19 L 21.589844 19 C 21.817047 19 22 18.817047 22 18.589844 L 22 18.410156 C 22 18.182953 21.817047 18 21.589844 18 L 2.4101562 18 z M 2.4453125 21 C 2.1981915 21 2 21.198192 2 21.445312 L 2 21.554688 C 2 21.801808 2.1981915 22 2.4453125 22 L 21.554688 22 C 21.801809 22 22 21.801808 22 21.554688 L 22 21.445312 C 22 21.198192 21.801813 21 21.554688 21 L 2.4453125 21 z "
     id="rect2" />
  <rect
     style="fill:#4d82b8"
     height="9"
     ry="1"
     width="10"
     x="-22"
     y="8"
     id="rect4"
     transform="scale(-1,1)" />
  <path
     style="fill:#eac282"
     d="M 1.5 1 C 1.223 1 1 1.223 1 1.5 L 1 6.5 C 1 6.777 1.223 7 1.5 7 C 1.777 7 2 6.777 2 6.5 L 2 2 L 6.5 2 C 6.777 2 7 1.777 7 1.5 C 7 1.223 6.777 1 6.5 1 L 1.5 1 z M 7.484375 2 C 7.357211 2.00407 7.2363784 2.05645 7.1464844 2.1464844 L 2.1464844 7.1464844 C 1.8317216 7.4614847 2.0546902 7.9998123 2.5 8 L 7.5 8 C 7.7761296 7.9999691 7.9999691 7.7761296 8 7.5 L 8 2.5 C 8.0001053 2.2176526 7.7665856 1.9912092 7.484375 2 z "
     id="rect12-6" />
</svg>
